img/iceberry-today-info-img-4-1.svg

<svg width="273" height="61" viewBox="0 0 273 61" fill="none" xmlns="http://www.w3.org/2000/svg">
<g clip-path="url(#clip0_1720_2661)">
<path d="M49.7982 8.27206C50.0688 7.6528 50.0688 7.6528 51.5573 4.006C47.9714 3.59316 46.0091 3.24913 42.8968 3.31793C38.8372 1.25371 34.3039 0.0839844 29.5001 0.0839844C13.1938 0.0839844 0 13.5014 0 30.084C0 46.6666 13.1938 60.084 29.5001 60.084C45.8063 60.084 59 46.6666 59 30.084C59 21.4831 55.4139 13.7766 49.7982 8.27206Z" fill="white"/>
<path d="M47.0594 12.941C46.9919 12.8721 46.9246 12.8721 46.8572 12.8721C46.7897 12.8721 46.7224 12.941 46.655 12.941C45.4422 14.3883 44.027 15.6978 42.4771 16.7315C39.3774 18.7302 35.8734 19.8329 32.1672 19.8329C25.2938 19.8329 21.3854 16.3869 18.2183 13.9059C18.151 13.8369 18.0836 13.768 18.0836 13.6991C18.0836 13.6302 18.151 13.5613 18.2183 13.4924C23.1375 9.63292 27.1807 7.15185 31.2911 5.70456C31.4259 5.63564 31.4933 5.56672 31.4933 5.42889C31.4933 5.29105 31.3586 5.22213 31.2237 5.15321C30.4825 5.08429 29.7412 5.08429 29.0001 5.08429C15.186 5.01538 4 16.4558 4 30.5841C4 38.372 7.36928 45.3328 12.7601 50.0192C12.8275 50.0882 12.8949 50.0882 13.0297 50.0882C13.097 50.0882 13.1644 50.0192 13.2318 49.8814L14.2426 46.5732C14.31 46.4354 14.4448 46.3665 14.5795 46.3665C27.9218 49.3299 33.6496 41.9558 32.7063 37.3382C31.8976 33.4098 25.6308 29.9638 16.4663 35.2705C16.3989 35.3395 16.3316 35.3395 16.2642 35.2705C16.2642 35.2705 16.1968 35.2705 16.1968 35.2017C16.1294 35.1328 16.062 35.0639 16.062 34.926L19.1617 18.7302C19.1617 18.6612 19.2291 18.5923 19.2966 18.5234C19.3639 18.4545 19.4986 18.5234 19.5661 18.5234C20.4421 19.0748 23.0701 20.7978 25.9003 22.5207C25.9677 22.5897 26.035 22.6585 26.035 22.7964C25.9677 23.4855 25.5633 26.0355 25.4286 27.1383C25.4286 27.2071 25.4286 27.345 25.496 27.4139C25.5633 27.4828 25.6308 27.4828 25.7655 27.4828C41.1294 23.2788 44.3639 33.1341 43.9596 37.8207C43.0162 48.503 31.4933 54.1543 21.2507 54.2921C21.116 54.2921 20.9812 54.3611 20.9812 54.4989C20.9812 54.6368 21.0485 54.7746 21.1833 54.7746C23.6766 55.6016 26.3046 56.084 29.0001 56.084C42.814 56.084 54 44.6435 54 30.5153C54 23.7613 51.3047 17.4896 47.0594 12.941Z" fill="#E31A4D"/>
<path d="M23 12.8186C31.4711 19.1451 43.8677 15.9479 48 6.08398C40.3554 9.6894 31.8843 12.0023 23 12.8186Z" fill="#8CBD1B"/>
<path d="M23 13.084C31.8843 12.3309 40.2865 10.0031 48 6.30611C39.3911 5.34762 30.438 7.46999 23 13.084Z" fill="#8CBD1B"/>
<path d="M150.695 23.0646C147.493 23.0646 145.585 25.1401 144.018 27.6999H143.95C143.95 25.0708 142.928 23.0646 139.998 23.0646C136.523 23.0646 134.683 25.6935 133.457 27.9074H133.389C133.593 27.0772 133.798 25.9011 134.002 24.9325C134.07 24.5866 133.934 24.2407 133.729 24.0331C133.525 23.7564 133.184 23.618 132.844 23.618H129.369L126.234 41.3983C126.166 41.6751 126.234 42.0209 126.439 42.2977C126.643 42.5053 126.916 42.6436 127.256 42.6436H130.936L131.208 41.0524C133.048 30.4672 135.569 27.5615 137.613 27.5615C139.044 27.5615 139.248 28.9452 138.908 30.8131L137 41.1907C136.932 41.5366 137 41.8826 137.273 42.1593C137.477 42.4361 137.818 42.5744 138.158 42.5744H141.769L142.042 40.9832C143.882 30.4672 146.403 27.4923 148.447 27.4923C149.81 27.4923 150.014 28.8069 149.673 30.744L147.766 41.3983C147.697 41.6751 147.766 41.9517 147.97 42.2285C148.174 42.4361 148.447 42.5744 148.719 42.5744H152.467L154.579 30.5364C154.783 29.5679 154.852 28.6684 154.852 27.9074C154.783 24.725 153.284 23.0646 150.695 23.0646ZM171.545 19.0519L173.18 19.3286C173.657 19.3978 174.066 19.467 174.202 18.706L174.748 16.6305C174.884 16.0078 174.679 15.8694 174.066 15.7311L172.567 15.4543C172.226 15.4543 171.681 15.316 171.545 16.077L170.932 18.2217C170.864 18.706 171 18.9827 171.545 19.0519ZM123.85 23.618H116.695C111.381 23.618 107.838 25.9011 107.838 30.1906C107.838 32.4736 109.405 33.9265 110.972 34.0648V34.134C110.359 34.3416 109.677 35.1718 108.928 36.0711C107.633 37.7316 106.679 38.8385 105.862 38.8385C105.725 38.8385 105.589 38.9768 105.521 39.1153L105.112 42.0902C105.112 42.2285 105.112 42.3668 105.248 42.4361C105.317 42.5053 105.453 42.5744 105.589 42.5744H107.088C109.541 42.5744 110.359 41.6058 112.744 38.5617C114.583 36.0711 115.265 35.3101 116.423 35.3101H117.24L116.082 42.0209C116.082 42.1593 116.082 42.2977 116.15 42.3668C116.218 42.5053 116.355 42.5053 116.491 42.5053H120.647C120.852 42.5053 121.056 42.3668 121.056 42.1593L124.259 24.0331C124.259 23.8948 124.259 23.7564 124.19 23.6872C124.122 23.6872 123.986 23.618 123.85 23.618ZM117.922 31.9201H115.333C113.697 31.9201 112.948 31.3667 112.948 30.2596C112.948 28.3918 114.106 27.4232 116.355 27.4232H118.808L117.922 31.9201ZM111.381 14.8317C131.276 14.0015 162.687 17.7374 162.687 17.7374C163.096 17.8066 163.437 17.599 163.573 17.2531L163.914 16.2154L164.459 14.4858C164.527 14.3474 164.459 14.2782 164.391 14.1398C164.323 14.0707 164.255 14.0015 164.118 13.9323C160.234 13.3788 131.549 9.64289 110.699 10.1272C91.0762 10.6115 74.5872 14.5549 70.1583 15.7311C69.8176 15.8003 69.5451 16.077 69.477 16.4921L69 19.0519C69 19.1903 69 19.3286 69.1363 19.3978C69.2044 19.467 69.3407 19.5362 69.477 19.467C73.02 18.6368 77.994 17.8066 84.535 16.9764L80.1743 41.7442C80.0381 42.1593 80.0381 42.6436 80.8557 42.6436H85.0801C85.3526 42.6436 85.6933 42.5744 85.8297 41.8826L89.9178 17.945C89.9178 17.8758 90.1904 16.6305 91.5531 16.2845C93.3246 16.077 96.3907 15.9386 98.2304 15.7311L93.6653 41.7442C93.529 42.6436 93.9379 42.5744 94.2786 42.5744H98.7075C99.0481 42.5744 99.5931 42.5053 99.7295 41.6751L104.022 16.6996C104.022 16.6996 104.295 15.3852 105.657 15.1084C107.838 15.0392 109.2 14.9009 111.381 14.8317ZM166.367 18.3601L168.206 18.6368C168.683 18.706 169.092 18.7752 169.297 18.0141L169.91 15.8694C170.046 15.1776 169.842 15.0392 169.228 14.9009L167.525 14.6933C167.184 14.6241 166.639 14.5549 166.435 15.316L165.822 17.5299C165.617 17.945 165.754 18.2217 166.367 18.3601ZM173.521 28.0457C173.521 24.9325 171.409 23.1338 167.798 23.1338C161.802 23.1338 157.032 28.3918 157.032 35.5177C157.032 40.0146 159.485 43.1278 164.186 43.1278C167.866 43.1278 170.25 41.6751 171.681 40.3605L169.705 36.9705C168.547 38.0082 166.912 38.9768 164.936 38.9768C162.892 38.9768 162.074 37.6624 162.006 35.5177C168.275 34.8258 173.521 32.6811 173.521 28.0457ZM162.347 32.266C163.028 29.4986 164.595 27.0081 166.98 27.0081C168.138 27.0081 168.751 27.4923 168.751 28.5993C168.683 30.6057 166.094 31.9201 162.347 32.266ZM188.306 23.0646C185.036 23.0646 183.333 25.3476 181.765 28.0457H181.697C181.902 27.354 182.038 26.7313 182.174 26.0395C182.311 25.4169 182.174 24.7942 181.765 24.3099C181.357 23.8256 180.812 23.5489 180.198 23.5489H177.814L172.84 51.084H175.633C176.86 51.084 177.95 50.1847 178.154 48.9393L179.244 42.7819C179.653 42.9203 180.471 43.0587 181.834 43.0587C188.306 43.0587 193.008 37.7316 193.008 29.4986C193.144 25.6244 191.236 23.0646 188.306 23.0646ZM181.97 39.3228C180.88 39.3228 180.335 39.1844 180.062 39.1153L180.266 38.0775C181.697 31.0899 184.082 27.5615 186.331 27.5615C187.489 27.5615 188.034 28.6684 188.034 30.3981C187.898 35.9328 185.24 39.3228 181.97 39.3228ZM266.527 23.0646C259.578 23.0646 254.74 28.6684 254.74 36.8321C254.74 40.7065 256.715 43.0587 259.578 43.0587C262.643 43.0587 264.483 40.7756 265.914 38.0082H265.981C265.778 38.8385 265.641 39.8763 265.504 40.8448C265.437 41.2599 265.573 41.7442 265.914 42.0902C266.186 42.4361 266.595 42.6436 267.072 42.6436H270.275C270.342 41.2599 270.547 38.1467 271.433 32.8887L273 24.2407C272.182 23.8256 269.934 23.0646 266.527 23.0646ZM267.413 28.1842C266.118 35.3101 263.665 38.7002 261.62 38.7002C260.463 38.7002 259.917 37.8007 259.917 35.9328C259.917 30.6057 262.711 26.8696 265.778 26.8696C266.527 26.8696 267.208 27.0081 267.549 27.0772L267.413 28.1842ZM248.198 35.1026C247.654 33.9956 247.108 33.2346 246.563 32.7503L254.807 23.618H250.311C249.561 23.618 248.811 23.964 248.267 24.5866L242.475 31.3667H241.453L242.543 25.1401C242.611 24.7942 242.543 24.3791 242.27 24.1023C242.066 23.8256 241.657 23.618 241.317 23.618H237.705L234.435 42.6436H238.046C238.863 42.6436 239.545 42.0209 239.681 41.2599L240.84 34.8258H241.384C242.475 34.8258 243.157 36.0019 244.314 38.5617C245.677 41.5366 246.359 42.6436 248.744 42.6436H250.72L251.4 38.8385H250.992C250.106 38.8385 249.357 37.6624 248.198 35.1026ZM227.893 24.7942C227.144 29.637 224.691 32.8194 222.306 32.8194C221.08 32.8194 220.671 31.9201 221.012 29.8445L221.625 26.1086C221.693 25.486 221.557 24.8633 221.148 24.3791C220.74 23.8948 220.194 23.618 219.581 23.618H217.06L215.902 30.0521C215.766 30.8823 215.697 31.7126 215.697 32.4043C215.697 35.5868 217.196 37.3165 219.853 37.3165C223.193 37.3165 225.373 35.1026 226.736 32.6811H226.803C226.259 35.5868 225.509 39.8763 225.237 42.5744H230.074C230.142 41.1907 230.483 38.0775 231.369 32.8194L233.003 23.5489H228.031L227.893 24.7942ZM205.545 23.0646C199.481 23.0646 194.916 28.5301 194.916 35.1026C194.916 39.4612 197.573 43.0587 202.411 43.0587C208.611 43.0587 212.903 37.8699 212.903 31.0206C212.972 26.5237 210.246 23.0646 205.545 23.0646ZM202.888 39.1844C200.98 39.1844 200.026 37.524 200.026 35.0333C200.026 31.505 202.002 27.0081 205.136 27.0081C207.044 27.0081 207.998 28.4609 207.998 31.0899C207.998 34.5491 206.226 39.1844 202.888 39.1844Z" fill="#E31A4D"/>
</g>
<defs>
<clipPath id="clip0_1720_2661">
<rect width="273" height="60" fill="white" transform="translate(0 0.0839844)"/>
</clipPath>
</defs>
</svg>

<svg width="273" height="61" viewBox="0 0 273 61" fill="none" xmlns="http://www.w3.org/2000/svg"><g clip-path="url(#clip0_1720_2661)"><path d="M49.798 8.272c.27-.62.27-.62 1.76-4.266-3.587-.413-5.549-.757-8.661-.688C38.837 1.254 34.304.084 29.5.084 13.194.084 0 13.501 0 30.084s13.194 30 29.5 30c16.306 0 29.5-13.417 29.5-30 0-8.6-3.586-16.307-9.202-21.812z" fill="#fff"/><path d="M47.06 12.941c-.068-.069-.135-.069-.203-.069-.067 0-.135.069-.202.069-1.213 1.447-2.628 2.757-4.178 3.79-3.1 2-6.604 3.102-10.31 3.102-6.873 0-10.782-3.446-13.949-5.927-.067-.07-.134-.138-.134-.207 0-.069.067-.138.134-.207 4.92-3.86 8.963-6.34 13.073-7.787.135-.07.202-.138.202-.276s-.134-.207-.27-.276c-.74-.069-1.482-.069-2.223-.069-13.814-.069-25 11.372-25 25.5 0 7.788 3.37 14.749 8.76 19.435.068.07.135.07.27.07.067 0 .134-.07.202-.208l1.01-3.308a.37.37 0 01.337-.206c13.343 2.963 19.07-4.411 18.127-9.029-.808-3.928-7.075-7.374-16.24-2.068-.067.07-.134.07-.202 0 0 0-.067 0-.067-.068-.068-.07-.135-.138-.135-.276l3.1-16.196c0-.069.067-.138.135-.207.067-.069.202 0 .27 0 .875.552 3.503 2.275 6.333 3.998.068.069.135.137.135.275-.067.69-.472 3.24-.606 4.342 0 .07 0 .207.067.276.067.069.135.069.27.069 15.363-4.204 18.598 5.651 18.194 10.338-.944 10.682-12.467 16.333-22.71 16.471-.134 0-.269.07-.269.207 0 .138.067.276.202.276 2.494.827 5.122 1.309 7.817 1.309 13.814 0 25-11.44 25-25.569 0-6.754-2.695-13.025-6.94-17.574z" fill="#E31A4D"/><path d="M23 12.819c8.471 6.326 20.868 3.129 25-6.735-7.645 3.605-16.116 5.918-25 6.735z" fill="#8CBD1B"/><path d="M23 13.084c8.884-.753 17.286-3.08 25-6.778-8.609-.958-17.562 1.164-25 6.778z" fill="#8CBD1B"/><path d="M150.695 23.065c-3.202 0-5.11 2.075-6.677 4.635h-.068c0-2.63-1.022-4.635-3.952-4.635-3.475 0-5.315 2.628-6.541 4.842h-.068c.204-.83.409-2.006.613-2.974a1.032 1.032 0 00-.273-.9c-.204-.277-.545-.415-.885-.415h-3.475l-3.135 17.78c-.068.277 0 .623.205.9.204.207.477.346.817.346h3.68l.272-1.592c1.84-10.585 4.361-13.49 6.405-13.49 1.431 0 1.635 1.383 1.295 3.251L137 41.191c-.068.346 0 .692.273.968.204.277.545.415.885.415h3.611l.273-1.59c1.84-10.517 4.361-13.492 6.405-13.492 1.363 0 1.567 1.315 1.226 3.252l-1.907 10.654c-.069.277 0 .554.204.83.204.208.477.346.749.346h3.748l2.112-12.038a12.81 12.81 0 00.273-2.629c-.069-3.182-1.568-4.842-4.157-4.842zm20.85-4.013l1.635.277c.477.069.886.138 1.022-.623l.546-2.075c.136-.623-.069-.762-.682-.9l-1.499-.277c-.341 0-.886-.138-1.022.623l-.613 2.145c-.068.484.068.76.613.83zm-47.695 4.566h-7.155c-5.314 0-8.857 2.283-8.857 6.573 0 2.283 1.567 3.735 3.134 3.874v.069c-.613.208-1.295 1.038-2.044 1.937-1.295 1.66-2.249 2.768-3.066 2.768-.137 0-.273.138-.341.276l-.409 2.975c0 .138 0 .277.136.346a.52.52 0 00.341.138h1.499c2.453 0 3.271-.968 5.656-4.012 1.839-2.49 2.521-3.252 3.679-3.252h.817l-1.158 6.71c0 .14 0 .278.068.347.068.138.205.138.341.138h4.156c.205 0 .409-.138.409-.346l3.203-18.126c0-.138 0-.277-.069-.346-.068 0-.204-.069-.34-.069zm-5.928 8.302h-2.589c-1.636 0-2.385-.553-2.385-1.66 0-1.868 1.158-2.837 3.407-2.837h2.453l-.886 4.497zm-6.541-17.088c19.895-.83 51.306 2.905 51.306 2.905.409.07.75-.138.886-.484l.341-1.038.545-1.73c.068-.138 0-.207-.068-.345a.917.917 0 00-.273-.208c-3.884-.553-32.569-4.29-53.419-3.805-19.623.484-36.112 4.428-40.54 5.604-.341.07-.614.346-.682.761L69 19.052c0 .138 0 .277.136.346.068.069.205.138.341.069 3.543-.83 8.517-1.66 15.058-2.49l-4.36 24.767c-.137.415-.137.9.68.9h4.225c.273 0 .613-.07.75-.761l4.088-23.938c0-.07.272-1.314 1.635-1.66 1.772-.208 4.838-.346 6.677-.554l-4.565 26.013c-.136.9.273.83.614.83h4.428c.341 0 .886-.069 1.023-.899l4.292-24.975s.273-1.315 1.635-1.592c2.181-.069 3.543-.207 5.724-.276zm54.986 3.528l1.839.277c.477.069.886.138 1.091-.623l.613-2.145c.136-.691-.068-.83-.682-.968l-1.703-.208c-.341-.069-.886-.138-1.09.623l-.613 2.214c-.205.415-.068.692.545.83zm7.154 9.686c0-3.113-2.112-4.912-5.723-4.912-5.996 0-10.766 5.258-10.766 12.384 0 4.497 2.453 7.61 7.154 7.61 3.68 0 6.064-1.453 7.495-2.767l-1.976-3.39c-1.158 1.037-2.793 2.006-4.769 2.006-2.044 0-2.862-1.315-2.93-3.46 6.269-.691 11.515-2.836 11.515-7.471zm-11.174 4.22c.681-2.767 2.248-5.258 4.633-5.258 1.158 0 1.771.484 1.771 1.591-.068 2.007-2.657 3.321-6.404 3.667zm25.959-9.201c-3.27 0-4.973 2.283-6.541 4.98h-.068a21.12 21.12 0 00.477-2.006c.137-.622 0-1.245-.409-1.73-.408-.483-.953-.76-1.567-.76h-2.384l-4.974 27.535h2.793c1.227 0 2.317-.9 2.521-2.145l1.09-6.157c.409.138 1.227.277 2.59.277 6.472 0 11.174-5.327 11.174-13.56.136-3.875-1.772-6.434-4.702-6.434zm-6.336 16.258c-1.09 0-1.635-.139-1.908-.208l.204-1.038c1.431-6.987 3.816-10.515 6.065-10.515 1.158 0 1.703 1.106 1.703 2.836-.136 5.535-2.794 8.925-6.064 8.925zm84.557-16.258c-6.949 0-11.787 5.603-11.787 13.767 0 3.874 1.975 6.227 4.838 6.227 3.065 0 4.905-2.283 6.336-5.05h.067c-.203.83-.34 1.867-.477 2.836-.067.415.069.9.41 1.245.272.346.681.554 1.158.554h3.203c.067-1.384.272-4.497 1.158-9.755L273 24.24c-.818-.415-3.066-1.176-6.473-1.176zm.886 5.12c-1.295 7.125-3.748 10.515-5.793 10.515-1.157 0-1.703-.9-1.703-2.767 0-5.327 2.794-9.063 5.861-9.063.749 0 1.43.138 1.771.207l-.136 1.107zm-19.215 6.918c-.544-1.107-1.09-1.868-1.635-2.353l8.244-9.132h-4.496c-.75 0-1.5.346-2.044.969l-5.792 6.78h-1.022l1.09-6.227c.068-.346 0-.76-.273-1.038a1.293 1.293 0 00-.953-.484h-3.612l-3.27 19.026h3.611c.817 0 1.499-.623 1.635-1.384l1.159-6.434h.544c1.091 0 1.773 1.176 2.93 3.736 1.363 2.975 2.045 4.082 4.43 4.082h1.976l.68-3.805h-.408c-.886 0-1.635-1.177-2.794-3.736zm-20.305-10.309c-.749 4.843-3.202 8.025-5.587 8.025-1.226 0-1.635-.899-1.294-2.975l.613-3.735c.068-.623-.068-1.246-.477-1.73-.408-.484-.954-.761-1.567-.761h-2.521l-1.158 6.434a15.04 15.04 0 00-.205 2.352c0 3.183 1.499 4.912 4.156 4.912 3.34 0 5.52-2.213 6.883-4.635h.067c-.544 2.906-1.294 7.195-1.566 9.893h4.837c.068-1.383.409-4.496 1.295-9.755l1.634-9.27h-4.972l-.138 1.245zm-22.348-1.73c-6.064 0-10.629 5.466-10.629 12.039 0 4.358 2.657 7.956 7.495 7.956 6.2 0 10.492-5.19 10.492-12.038.069-4.497-2.657-7.956-7.358-7.956zm-2.657 16.12c-1.908 0-2.862-1.66-2.862-4.15 0-3.529 1.976-8.026 5.11-8.026 1.908 0 2.862 1.453 2.862 4.082 0 3.46-1.772 8.094-5.11 8.094z" fill="#E31A4D"/></g><defs><clipPath id="clip0_1720_2661"><path fill="#fff" transform="translate(0 .084)" d="M0 0h273v60H0z"/></clipPath></defs></svg>
